X:118
T:Luck and No Luck
S:John Moore's Book 2
Z:Transcribed by Steve Mansfield 05/2021
%%VWML: Moore2-4494-p91-0
F:http://www.vwml.org/record/Moore2/4494/p91
M:6/8
L:1/8
K:A
c/d/ | efe eaf | ecA B2c/d/ | efe eaf | ecB A2 :|
(e/c/) | dBA GBd | ecB Aec | dBA GBd | cdB A2 :|


